src/assets/icons/numbers,fancy,08.svg

<svg width="48" height="48" viewBox="0 0 48 48" fill="none" xmlns="http://www.w3.org/2000/svg">
<path d="M23.9876 39.3977C30.5501 39.3977 35.266 35.8892 35.2802 31.1733C35.266 27.5369 32.4677 24.5682 28.9734 23.9858V23.7869C32.0131 23.1619 34.1864 20.5341 34.2006 17.3381C34.1864 12.8352 29.8683 9.51136 23.9876 9.51136C18.0927 9.51136 13.7745 12.8352 13.7887 17.3381C13.7745 20.5199 15.9194 23.1619 19.016 23.7869V23.9858C15.4648 24.5682 12.695 27.5369 12.7092 31.1733C12.695 35.8892 17.4251 39.3977 23.9876 39.3977ZM23.9876 34.8807C21.0614 34.8807 19.1012 33.1477 19.1012 30.6903C19.1012 28.1761 21.1609 26.358 23.9876 26.358C26.8001 26.358 28.8739 28.1761 28.8739 30.6903C28.8739 33.1619 26.8995 34.8807 23.9876 34.8807ZM23.9876 21.8835C21.5302 21.8835 19.783 20.2784 19.783 17.9773C19.783 15.7045 21.5018 14.142 23.9876 14.142C26.4592 14.142 28.1921 15.7188 28.1921 17.9773C28.1921 20.2784 26.4308 21.8835 23.9876 21.8835Z" fill="black"/>
</svg>

<svg xmlns="http://www.w3.org/2000/svg" width="48" height="48" fill="none" viewBox="0 0 48 48">
  <path fill="#000" d="M23.988 39.398c6.562 0 11.278-3.509 11.292-8.225-.014-3.636-2.812-6.605-6.307-7.187v-.2c3.04-.624 5.213-3.252 5.228-6.448-.015-4.503-4.333-7.827-10.213-7.827-5.895 0-10.213 3.324-10.2 7.827-.014 3.182 2.131 5.824 5.228 6.449v.199c-3.551.582-6.321 3.55-6.307 7.187-.014 4.716 4.716 8.225 11.279 8.225zm0-4.517c-2.927 0-4.887-1.733-4.887-4.19 0-2.515 2.06-4.333 4.887-4.333 2.812 0 4.886 1.818 4.886 4.332 0 2.472-1.974 4.19-4.886 4.19zm0-12.997c-2.458 0-4.205-1.606-4.205-3.907 0-2.273 1.719-3.835 4.205-3.835 2.471 0 4.204 1.577 4.204 3.835 0 2.301-1.761 3.907-4.204 3.907z"/>
</svg>
